assets/icons/blood_colored.svg

<svg fill="none" height="24" viewBox="0 0 24 24" width="24" xmlns="http://www.w3.org/2000/svg"><path d="m14.3229 13.7191c-.9987-1.5779-2.2399-2.9694-3.5472-4.30885-.0949-.09701-.1325-.03992-.1932.02111-.69495.69964-1.35971 1.42504-1.98646 2.18384-.82978 1.0045-1.59421 2.0474-2.16527 3.2176-.4153.8527-.55689 1.7336-.30701 2.6539.46955 1.7289 1.59277 2.8499 3.35733 3.357.23817.0684.48599.1049.72951.1562h.9042c.0125-.0371.0452-.0297.0739-.0317.3181-.022.6318-.0849.9328-.1873 1.4912-.5042 2.5134-1.4741 3.019-2.9319.2113-.6087.3072-1.2388.1827-1.8812-.1594-.8212-.5564-1.5476-1.0003-2.2487zm.1882 4.0341c-.5382 1.4007-1.573 2.2804-3.0801 2.5635-2.13177.4015-4.15895-.8952-4.69364-2.944-.202-.7741-.10809-1.5123.23015-2.2343.36804-.7853.84252-1.5073 1.36755-2.1982.67949-.8953 1.411-1.7521 2.19094-2.5664.0528-.0549.1069-.1086.1656-.1685 1.2044 1.2877 2.3568 2.5982 3.2657 4.0921.2721.4471.5084.912.6637 1.4105.2162.6929.1453 1.3807-.1099 2.0453z" fill="#5c5b5b"/><path d="m9.69592 7.02443c.55488.02196 1.14628-.23594 1.45608-.85155.154-.30601.2152-.61881.0467-.95476-.2454-.48926-.5378-.94877-.8483-1.3999-.189-.27427-.40994-.52738-.57433-.81822h-.03617c-.48312.65873-.97383 1.31386-1.36262 2.03368-.14919.27646-.23878.55113-.14385.86812.17344.57868.67669 1.0917 1.46249 1.12263zm-.85484-1.50249c.25049-.51741.5388-1.01245.90889-1.47716.34383.45196.64063.93602.88583 1.44501.0426.08704.0381.16349.0142.25152-.1083.40082-.4658.67091-.8988.6731-.41961.0022-.80758-.28126-.90704-.66971-.01809-.07066-.03987-.14711-.00308-.22276z" fill="#969696"/><path d="m17.8613 7.22908c-.4015-.68709-.8291-1.35321-1.3091-1.98859-.3699-.49026-.762-.96435-1.179-1.43385-.906 1.06316-1.77 2.12672-2.435 3.32782-.2852.51521-.4618 1.04539-.3263 1.64424.4284 1.8973 2.5717 2.7892 4.2729 1.7718.9322-.55735 1.7624-1.977.9765-3.32142zm-1.22 2.74054c-.7038.47568-1.4641.53898-2.233.17048-.769-.36848-1.1654-1.00209-1.218-1.8319-.0144-.22496.0791-.43436.1765-.63478.4315-.88709 1.0213-1.67478 1.6319-2.4493.1204-.1529.2466-.30201.3744-.45911.3191.37108.6164.75195.9041 1.142.3765.51362.7398 1.03682 1.0242 1.60492.458.91465.2069 1.87181-.6601 2.45769z" fill="#969696"/><path d="m10.1935 18.5599c-.0925.009-.1907-.02-.28379-.0414-.92862-.2157-1.54406-.8641-1.69674-1.7839-.04891-.2955-.04891-.2955-.34174-.2955-.03006.0029-.06035.0029-.09041 0-.19337-.0387-.24392.0504-.21269.2182.01377.0747.02261.1501.03391.225.18165 1.2087 1.26583 2.1945 2.51586 2.2879.2579.02.2579.02.2577-.2251-.0028-.0585-.0024-.1172.001-.1757.0142-.1349-.0021-.2273-.1831-.2095z" fill="#5c5b5b"/></svg>

<svg width="24" height="24" viewBox="0 0 24 24" fill="none" xmlns="http://www.w3.org/2000/svg">
<path d="M14.3229 13.7191C13.3242 12.1412 12.083 10.7497 10.7757 9.41025C10.6808 9.31324 10.6432 9.37033 10.5825 9.43136C9.88755 10.131 9.22279 10.8564 8.59604 11.6152C7.76626 12.6197 7.00183 13.6626 6.43077 14.8328C6.01547 15.6855 5.87388 16.5664 6.12376 17.4867C6.59331 19.2156 7.71653 20.3366 9.48109 20.8437C9.71926 20.9121 9.96708 20.9486 10.2106 20.9999H11.1148C11.1273 20.9628 11.16 20.9702 11.1887 20.9682C11.5068 20.9462 11.8205 20.8833 12.1215 20.7809C13.6127 20.2767 14.6349 19.3068 15.1405 17.849C15.3518 17.2403 15.4477 16.6102 15.3232 15.9678C15.1638 15.1466 14.7668 14.4202 14.3229 13.7191ZM14.5111 17.7532C13.9729 19.1539 12.9381 20.0336 11.431 20.3167C9.29923 20.7182 7.27205 19.4215 6.73736 17.3727C6.53536 16.5986 6.62927 15.8604 6.96751 15.1384C7.33555 14.3531 7.81003 13.6311 8.33506 12.9402C9.01455 12.0449 9.74606 11.1881 10.526 10.3738C10.5788 10.3189 10.6329 10.2652 10.6916 10.2053C11.896 11.493 13.0484 12.8035 13.9573 14.2974C14.2294 14.7445 14.4657 15.2094 14.621 15.7079C14.8372 16.4008 14.7663 17.0886 14.5111 17.7532Z" fill="#5C5B5B"/>
<path d="M9.69592 7.02443C10.2508 7.04639 10.8422 6.78849 11.152 6.17288C11.306 5.86687 11.3672 5.55407 11.1987 5.21812C10.9533 4.72886 10.6609 4.26935 10.3504 3.81822C10.1614 3.54395 9.94046 3.29084 9.77607 3H9.7399C9.25678 3.65873 8.76607 4.31386 8.37728 5.03368C8.22809 5.31014 8.1385 5.58481 8.23343 5.9018C8.40687 6.48048 8.91012 6.9935 9.69592 7.02443ZM8.84108 5.52194C9.09157 5.00453 9.37988 4.50949 9.74997 4.04478C10.0938 4.49674 10.3906 4.9808 10.6358 5.48979C10.6784 5.57683 10.6739 5.65328 10.65 5.74131C10.5417 6.14213 10.1842 6.41222 9.7512 6.41441C9.33159 6.41661 8.94362 6.13315 8.84416 5.7447C8.82607 5.67404 8.80429 5.59759 8.84108 5.52194Z" fill="#969696"/>
<path d="M17.8613 7.22908C17.4598 6.54199 17.0322 5.87587 16.5522 5.24049C16.1823 4.75023 15.7902 4.27614 15.3732 3.80664C14.4672 4.8698 13.6032 5.93336 12.9382 7.13446C12.653 7.64967 12.4764 8.17985 12.6119 8.7787C13.0403 10.676 15.1836 11.5679 16.8848 10.5505C17.817 9.99315 18.6472 8.5735 17.8613 7.22908ZM16.6413 9.96962C15.9375 10.4453 15.1772 10.5086 14.4083 10.1401C13.6393 9.77162 13.2429 9.13801 13.1903 8.3082C13.1759 8.08324 13.2694 7.87384 13.3668 7.67342C13.7983 6.78633 14.3881 5.99864 14.9987 5.22412C15.1191 5.07122 15.2453 4.92211 15.3731 4.76501C15.6922 5.13609 15.9895 5.51696 16.2772 5.90701C16.6537 6.42063 17.017 6.94383 17.3014 7.51193C17.7594 8.42658 17.5083 9.38374 16.6413 9.96962Z" fill="#969696"/>
<path d="M10.1935 18.5599C10.101 18.5689 10.0028 18.5399 9.90971 18.5185C8.98109 18.3028 8.36565 17.6544 8.21297 16.7346C8.16406 16.4391 8.16406 16.4391 7.87123 16.4391C7.84117 16.442 7.81088 16.442 7.78082 16.4391C7.58745 16.4004 7.5369 16.4895 7.56813 16.6573C7.5819 16.732 7.59074 16.8074 7.60204 16.8823C7.78369 18.091 8.86787 19.0768 10.1179 19.1702C10.3758 19.1902 10.3758 19.1902 10.3756 18.9451C10.3728 18.8866 10.3732 18.8279 10.3766 18.7694C10.3908 18.6345 10.3745 18.5421 10.1935 18.5599Z" fill="#5C5B5B"/>
</svg>
